icons/capacitorjs.svg

<?xml version="1.0" encoding="UTF-8"?>
<svg width="512px" height="98px" viewBox="0 0 512 98" version="1.1" xmlns="http://www.w3.org/2000/svg" xmlns:xlink="http://www.w3.org/1999/xlink" preserveAspectRatio="xMidYMid">
    <g>
        <path d="M265.149359,30.1428622 C279.03553,30.1428622 287.151949,40.9908825 287.151949,54.4719238 C287.151949,67.984254 279.03553,78.8008635 265.149359,78.8008635 C258.401524,78.8008635 253.479822,75.9462603 251.002311,72.7742984 L251.002311,93.4603175 L238.0288,93.4603175 L238.0288,31.221313 L249.991721,31.221313 L249.991721,36.8991492 C252.990578,32.6486959 258.401524,30.1428622 265.149359,30.1428622 Z M152.091225,17.0496 C170.03967,17.0496 179.130514,29.2346717 180.762006,39.8253917 L180.762006,39.8253917 L166.962794,39.8253917 C165.331302,33.4481879 159.433549,29.006913 151.974603,29.006913 C142.06781,29.006913 134.934756,36.8645689 134.934756,48.0247873 C134.934756,59.0709841 142.06781,66.9285587 151.974603,66.9285587 C159.433549,66.9285587 165.331302,62.4871619 166.962794,56.1099175 L166.962794,56.1099175 L180.762006,56.1099175 C179.130514,66.7010032 170.03967,78.8857905 152.091225,78.8857905 C134.258997,78.8857905 121.904762,65.1064889 121.904762,48.0247873 C121.904762,30.8289829 134.258997,17.0496 152.091225,17.0496 Z M205.209194,30.1428622 C211.956622,30.1428622 217.33506,32.6170006 220.366832,36.8991492 L220.366832,31.221313 L232.329752,31.221313 L232.329752,77.7224127 L220.366832,77.7224127 L220.366832,72.0444952 C217.367568,76.2949079 211.956622,78.8008635 205.209194,78.8008635 C191.323022,78.8008635 183.206197,67.9525587 183.206197,54.4719238 C183.206197,40.9591873 191.323022,30.1428622 205.209194,30.1428622 Z M312.224914,30.1428622 C318.972343,30.1428622 324.350781,32.6170006 327.382146,36.8991492 L327.382146,31.221313 L339.345067,31.221313 L339.345067,77.7224127 L327.382146,77.7224127 L327.382146,72.0444952 C324.383289,76.2949079 318.972343,78.8008635 312.224914,78.8008635 C298.338743,78.8008635 290.222324,67.9525587 290.222324,54.4719238 C290.222324,40.9591873 298.338743,30.1428622 312.224914,30.1428622 Z M367.01501,30.1428622 C381.878857,30.1428622 388.91967,40.3566121 389.83233,48.254781 L376.500419,48.254781 C375.489829,44.2579302 371.676241,41.3399365 366.917079,41.3399365 C359.974197,41.3399365 355.964749,46.6688 355.964749,54.4719238 C355.964749,62.2750476 359.974197,67.6039111 366.917079,67.6039111 C371.676241,67.6039111 375.489829,64.6855111 376.500419,60.6890667 L389.83233,60.6890667 C388.91967,68.5872762 381.878857,78.8008635 367.01501,78.8008635 C353.128838,78.8008635 343.023746,68.3333079 343.023746,54.4719238 C343.023746,40.6103365 353.128838,30.1428622 367.01501,30.1428622 Z M456.870603,30.1428622 C472.189968,30.1428622 481.970794,41.2448508 481.970794,54.4719238 C481.970794,67.6989968 472.189968,78.8008635 456.870603,78.8008635 C441.551238,78.8008635 431.770413,67.6989968 431.770413,54.4719238 C431.770413,41.2448508 441.551238,30.1428622 456.870603,30.1428622 Z M510.45181,30.746047 C510.902857,30.746047 512,30.8411733 512,30.8411733 L512,42.6727619 C512,42.6727619 510.646857,42.4187937 509.484698,42.4187937 C502.011937,42.4187937 498.110984,46.0665905 498.110984,54.5991111 L498.110984,77.7862095 L485.286603,77.7862095 L485.286603,31.1901054 L497.111365,31.1901054 L497.111365,37.216833 C498.818032,34.4572343 502.430476,30.746047 510.45181,30.746047 Z M423.952254,19.6468216 L423.952254,31.1927873 L433.928127,31.1927873 L433.928127,41.4699683 L423.952254,41.4699683 L423.952254,77.7573587 L410.981587,77.7573587 L410.981587,19.6468216 L423.952254,19.6468216 Z M405.180952,31.1905524 L405.180952,77.7232254 L392.207441,77.7232254 L392.207441,31.1905524 L405.180952,31.1905524 Z M207.947175,41.2448508 C200.743416,41.2448508 196.179708,46.9227683 196.179708,54.4719238 C196.179708,62.0210794 200.743416,67.6989968 207.947175,67.6989968 C215.15134,67.6989968 219.714814,62.0210794 219.714814,54.4719238 C219.747149,46.9227683 215.183848,41.2448508 207.947175,41.2448508 Z M262.410971,41.2448508 C255.207213,41.2448508 250.643332,46.9227683 250.643332,54.4719238 C250.610997,62.0210794 255.174705,67.6989968 262.410971,67.6989968 C269.615137,67.6989968 274.178438,62.0210794 274.178438,54.4719238 C274.178438,46.9227683 269.615137,41.2448508 262.410971,41.2448508 Z M314.962895,41.2448508 C307.759137,41.2448508 303.195835,46.9227683 303.195835,54.4719238 C303.195835,62.0210794 307.759137,67.6989968 314.962895,67.6989968 C322.16706,67.6989968 326.730534,62.0210794 326.730534,54.4719238 C326.76287,46.9227683 322.199568,41.2448508 314.962895,41.2448508 Z M456.870603,41.2448508 C450.023619,41.2448508 444.745143,46.1295746 444.745143,54.4719238 C444.745143,62.814273 450.023619,67.6989968 456.870603,67.6989968 C463.717587,67.6989968 468.996063,62.814273 468.996063,54.4719238 C468.996063,46.1295746 463.717587,41.2448508 456.870603,41.2448508 Z M398.693994,12.1904762 C403.257702,12.1904762 406.548317,15.394174 406.548317,19.8349206 C406.548317,24.2756673 403.257702,27.3841981 398.693994,27.3841981 C394.130692,27.3841981 390.838451,24.2756673 390.838451,19.8349206 C390.838451,15.394174 394.130692,12.1904762 398.693994,12.1904762 Z" fill="#000000"></path>
        <g>
            <polygon fill="#53B9FF" points="15.1857575 20.6150705 0.118321575 35.7015162 23.3547581 59.0075937 0 82.4324063 15.0202921 97.5254349 38.4221054 74.0941206 61.697219 97.358019 76.7646476 82.2714921"></polygon>
            <polygon fill="#119EFF" points="53.5304127 59.008 38.4226337 74.0941206 61.6976254 97.3584254 76.765054 82.2718984"></polygon>
            <polygon fill-opacity="0.2" fill="#000000" points="53.5304127 59.008 38.4226337 74.0941206 44.2384254 79.8776889"></polygon>
            <polygon fill="#53B9FF" points="74.1217524 38.4705422 97.5238095 15.0392279 82.4498794 0 59.0547302 23.3842184 35.7777473 0.118473549 20.7103187 15.2049371 82.2893714 76.8613587 97.3568 61.7748317"></polygon>
            <polygon fill="#119EFF" points="43.9466667 38.4711517 59.0547302 23.3847873 35.7777473 0.119047721 20.7103187 15.205506"></polygon>
            <polygon fill-opacity="0.2" fill="#000000" points="43.9462603 38.4706235 59.0543238 23.3842997 53.2370286 17.5991873"></polygon>
        </g>
    </g>
</svg>

<svg xmlns="http://www.w3.org/2000/svg" viewBox="0 0 512 97.525">
  <path d="M265.15 30.143c13.886 0 22.002 10.848 22.002 24.329 0 13.512-8.116 24.329-22.003 24.329-6.747 0-11.67-2.855-14.147-6.027V93.46H238.03V31.221h11.963V36.9c2.999-4.25 8.41-6.756 15.157-6.756zM152.09 17.05c17.949 0 27.04 12.185 28.671 22.775h-13.8c-1.63-6.377-7.528-10.818-14.987-10.818-9.907 0-17.04 7.858-17.04 19.018 0 11.046 7.133 18.904 17.04 18.904 7.459 0 13.356-4.442 14.988-10.82h13.799c-1.631 10.592-10.722 22.777-28.67 22.777-17.833 0-30.187-13.78-30.187-30.861 0-17.196 12.354-30.975 30.186-30.975zm53.118 13.093c6.748 0 12.126 2.474 15.158 6.756v-5.678h11.963v46.501h-11.963v-5.678c-3 4.25-8.41 6.757-15.158 6.757-13.886 0-22.003-10.848-22.003-24.33 0-13.512 8.117-24.328 22.003-24.328zm107.016 0c6.747 0 12.126 2.474 15.157 6.756v-5.678h11.963v46.501h-11.963v-5.678c-2.999 4.25-8.41 6.757-15.157 6.757-13.886 0-22.003-10.848-22.003-24.33 0-13.512 8.117-24.328 22.003-24.328zm54.79 0c14.864 0 21.905 10.214 22.817 18.112H376.5c-1.01-3.997-4.824-6.915-9.583-6.915-6.943 0-10.952 5.329-10.952 13.132s4.01 13.132 10.952 13.132c4.76 0 8.573-2.918 9.583-6.915h13.332c-.912 7.898-7.953 18.112-22.817 18.112-13.886 0-23.991-10.468-23.991-24.33 0-13.86 10.105-24.328 23.991-24.328zm89.856 0c15.319 0 25.1 11.102 25.1 24.329S472.19 78.8 456.87 78.8c-15.32 0-25.1-11.102-25.1-24.33 0-13.226 9.78-24.328 25.1-24.328zm53.58.603c.452 0 1.549.095 1.549.095v11.832s-1.353-.254-2.515-.254c-7.473 0-11.374 3.648-11.374 12.18v23.187h-12.824V31.19h11.824v6.027c1.707-2.76 5.32-6.471 13.34-6.471zm-86.499-11.1v11.547h9.976V41.47h-9.976v36.287h-12.97v-58.11zm-18.771 11.545v46.532h-12.974V31.191zM207.947 41.245c-7.204 0-11.767 5.678-11.767 13.227 0 7.55 4.563 13.227 11.767 13.227s11.768-5.678 11.768-13.227c.032-7.55-4.531-13.227-11.768-13.227zm54.464 0c-7.204 0-11.768 5.678-11.768 13.227-.032 7.55 4.532 13.227 11.768 13.227 7.204 0 11.767-5.678 11.767-13.227 0-7.55-4.563-13.227-11.767-13.227zm52.552 0c-7.204 0-11.767 5.678-11.767 13.227 0 7.55 4.563 13.227 11.767 13.227s11.768-5.678 11.768-13.227c.032-7.55-4.531-13.227-11.768-13.227zm141.908 0c-6.847 0-12.126 4.885-12.126 13.227s5.279 13.227 12.126 13.227c6.847 0 12.125-4.885 12.125-13.227s-5.278-13.227-12.125-13.227zM398.694 12.19c4.564 0 7.854 3.204 7.854 7.645 0 4.44-3.29 7.55-7.854 7.55-4.563 0-7.856-3.11-7.856-7.55 0-4.44 3.293-7.645 7.856-7.645z"/>
  <path fill="#53b9ff" d="M23.355 59.008 0 82.432l15.02 15.093 23.402-23.43 23.275 23.263 15.068-15.087-61.58-61.656L.119 35.702z"/>
  <path fill="#119eff" d="m61.698 97.358 15.067-15.086L53.53 59.008 38.423 74.094z"/>
  <path fill-opacity=".2" d="m44.238 79.878 9.292-20.87-15.107 15.086z"/>
  <path fill="#53b9ff" d="M82.45 0 59.055 23.384 35.778.118 20.71 15.205 82.29 76.86l15.067-15.086L74.122 38.47l23.402-23.432z"/>
  <path fill="#119eff" d="M35.778.119 20.71 15.206 43.947 38.47l15.108-15.086z"/>
  <path fill-opacity=".2" d="m53.237 17.6-9.29 20.87 15.107-15.086z"/>
</svg>
